X: 16723
T: Harald's
R: jig
M: 6/8
K: Dmajor
|:FGA DED|DFA dAF|GBd Ade|~f3 ecA|
FGA DED|DFA dAF|GBd Adf|1 gec dAG:|2 gec d2e||
|:fdB FBd|cde aec|fdB FBd|cde ABc|
[1 Bcd cde|~f3 ecA|~a3 gec|edc d2e:|
[2 Bcd cde|def efg|fed edc|dAF D3||

